X:0097
T:Kiss me Sweetly.
M:2/4
L:1/16
I: :: ::
Z:Jack Campin * www.campin.me.uk * 2009
K:G
d2|(edcB)   G2d2 | B2d2   G2d2 |edcB  G2d2 |B2``A2  A2
d2|(edcB)   G2d2 | B2d2   A2B2 |G2E2  D2B,2|G,G,G,2 G,2:|
D2|(B,2D2) (G2D2)|(E2D2) (G2D2)|B,2D2 G2D2 |A2``A,2 A,2
D2| B,2D2   G2D2 | E2D2   d2e2 |d2B2  A2B2 |G`G`G2  G2 :|

